X:1
T:Bröllpsskruden
T:W Peterson-Berger (1867-1942)
T:Text: Fritt försvenskad av W P-B
T:Bröllpsskruden
T:Rysk folkvisa
T:©PA Aglert
T:©PA Aglert
T:©PA Aglert
T:©PA Aglert
T:©PA Aglert
C:W Peterson-Berger (1867-1942)
Z:©PA Aglert
%%score [ 1 2 3 4 ]
L:1/8
Q:1/4=80
M:4/4
K:G
V:1 treble nm="S"
V:2 treble nm="A"
V:3 treble-8 nm="T"
V:4 bass nm="B"
V:1
"^Grazioso quasi alla breve"!<(! D2 B2!<)! B2 A2 | G2 (FE) D2 (EF) |!<(! G2 B2 c3!<)! B | (A4 E4) | %4
w: Kä- ra mo- der|säg, vi _ söm- mar _|du den rö- da|skrud? _|
!<(! E2!<)! c2 c2 B2 | B2 A2 G2 E2 | D2 G2 A2 B2 | G8 | z2!p! E2!<(! F2 G2!<)! | %9
w: Säg vem dröm- mer|bröl- lops- dröm- mar?|Säg, vem skall stå|brud?|O, mo- der,|
 z2 A2!>(! A2 A2!>)! | z2 A2 G2 F2 | z2!>(! F2 E2 E2!>)! | z2 G2 A2 B2 | z2 c4 c2 | %14
w: du kä- ra|säg vil- ken|vill bä- ra|ba- rin- jans|hu- va|
!<(! z2 B4!<)!!>(! ^D2!>)! | z2!p! E2 E2 E2 | z2!mp! B2!<(! B2 B2!<)! | z2 E2 E2 E2 | z2 D2 G2 d2 | %19
w: re'n i|sin ung- dom.|Säg, vil- ken|som skru- den|med pär- lor|
 z2 D2 G2 d2 | z2 G2 F2 E2 | z2 e2 c2 A2 |!<(! G2!<)! B2!>(! ^D3 D!>)! | %23
w: så loc- kar|att hon från|sin lju- va|bar- na- fri- het|
!p!"^rit. molto"!>(! E8!>)!!pp! |!mf!"^a tempo" A3 A B2 A2 | G4 D4 |!<(! A3 A B2 A2!<)! | %27
w: går?|Dot- ter, kä- ra|dot- ter,|vac- kert är ditt|
!>(! d6!>)! z2 |!mf!!<(! B3 B c2!<)! B2 | d2!>(! c2 B2 A2!>)! |!p!"^rit. poco" G3!>(! E F2!>)! G2 | %31
w: tal,|men det blin- da|ö- dets lot- ter|skän- kas u- tan|
!pp!"^rit."!>(! E8!>)! |!p!"^a tempo"!<(! D2 B2!<)! B2 A2 |!>(! G2 (F!>)!E) D2 (EF) | %34
w: val.|Där- för må väl|flinkt jag _ söm- ma _|
!<(! G2 B2 c3!<)! B |!>(! (A4 E4)!>)! |!<(! E2!<)! c2 c2 B2 |!<(! B2!<)! A2!>(! G2!>)! E2 | %38
w: på den rö- da|skrud. _|Snart kan du om|bröl- lop dröm- ma,|
!<(! D2 G2 A2!<)! B2 |!>(! G8!>)! |] %40
w: snart kan du stå|brud.|
V:2
!<(! D2!<)! G2 E2 F2 | D2 ^C2 =C2 C2 |!<(! B,2 D2!<)! D3 D | C4 E2 D2 |!<(! C2!<)! E2 ^D2 D2 | %5
w: Kä- ra mo- der|säg, vi söm- mar|du den rö- da|skrud? Mo- der,|Säg vem dröm- mer|
 E2 E2 E2 B,2 | B,2 B,2 C2 C2 | B,8 | z2!p! B,2!<(! ^D2 E2!<)! | z2 E2!>(! E2 E2!>)! | %10
w: bröl- lops- dröm- mar?|Säg, vem skall stå|brud?|O, mo- der,|du kä- ra|
 z2 E2 ^D2 D2 | z2!>(! ^D2 E2 E2!>)! | z2 E2 E2 E2 | z2 G4 G2 |!<(! z2 E4!<)!!>(! B,2!>)! | %15
w: säg vil- ken|vill bä- ra|ba- rin- jans|hu- va|re'n i|
 z2!p! C2 B,2 B,2 |!mf! G3 G!<(! F2 E2!<)! | d4 c4 | F3 F B2 A2 | A4 G4 | B3 B A2 G2 | F4 E4 | %22
w: sin ung- dom.|Säg, vem des- sa|pär- lors|glans så mäk- tigt|loc- kar|att hon från sin|lju- va|
!<(! B,2!<)! E2!>(! G3 F!>)! |!p!"^rit. molto"!>(! (E4!>)!!pp! C4) |!mf!"^a tempo" ^C3 C D2 =C2 | %25
w: bar- na- fri- het|går? _|Dot- ter, kä- ra|
 B,4 D4 |!<(! ^C3 C =C2 (F!<)!E) |!>(! D6!>)! z2 |!mf!!<(! ^D3 D E2 E2!<)! | =F2!>(! F2 F2 F2!>)! | %30
w: dot- ter,|vac- kert är ditt _|tal,|men det blin- da|ö- dets lot- ter|
!p!"^rit. poco" E3!>(! E E2 ^D2!>)! |!pp!"^rit."!>(! (!courtesy!=D4!>)! ^C4) | %32
w: skän- kas u- tan|val. _|
!p!"^a tempo"!<(! D2 D2!<)! ^C2 =C2 |!>(! B,2 (C^C)!>)! D2 D2 |!<(! D2 G2!<)! =F3 F |!>(! E8!>)! | %36
w: Där- för må väl|flinkt jag _ söm- ma|på den rö- da|skrud.|
!<(! E2!<)! E2 ^D2 =D2 |!<(! C2!<)! =F2!>(! (CB,)!>)! ^A,2 |!<(! B,2 D2 ^C2!<)! =C2 | %39
w: Snart kan du om|bröl- lop dröm- * ma,|snart kan du stå|
!>(! B,8!>)! |] %40
w: brud.|
V:3
!<(! d2!<)! d2 ^c2 =c2 | B2 ^A2 =A2 d2 |!<(! G2 G2 ^G3!<)! G | A8 |!<(! c2!<)! A2 A2 A2 | %5
w: Kä- ra mo- der|säg, vi söm- mar|du den rö- da|skrud?|Säg vem dröm- mer|
 e2 c2 B2 G2 | G2 D2 E2 F2 | D8 | z2!p! G2!<(! B2 B2!<)! | z2 A2!>(! A2 A2!>)! | z2 c2 B2 B2 | %11
w: bröl- lops- dröm- mar?|Säg, vem skall stå|brud?|O, mo- der,|du kä- ra|säg vil- ken|
 z2!>(! B2 B2 B2!>)! | z2 c2 c2 c2 | z2 c4 c2 |!<(! z2 G4!<)!!>(! A2!>)! | z2!p! G2 G2 G2 | %16
w: vill bä- ra|ba- rin- jans|hu- va|re'n i|sin ung- dom.|
!mf! B3 B!<(! A2 G2!<)! | B4 A4 | A3 A d2 c2 | c4 B4 | d3 d c2 B2 | c4 F4 | %22
w: Säg, vem des- sa|pär- lors|glans så mäk- tigt|loc- kar|att hon från sin|lju- va|
!<(! e2 G2!<)!!>(! A3 A!>)! |!p!"^rit. molto"!>(! (G4!>)!!pp! F4) |!mf!"^a tempo" G4 F4 | %25
w: bar- na- fri- het|går? _|Dot- ter,|
 G2 A2 B2 A2 |!<(! G6!<)! F2 |!<(! F2 G2 (^G4!<)! |!mf!!<(! A4 ^G2) G2!<)! | A2!>(! A2 d2 c2!>)! | %30
w: kä- ra dot- ter,|vac- kert|är ditt tal,|_ _ men|ö- dets lot- ter|
!p!"^rit. poco" B3!>(! G ^c2!>)! =c2 |!pp!"^rit."!>(! (B4 ^A4)!>)! | %32
w: skän- kas u- tan|val. _|
!p!"^a tempo"!<(! B2 G2!<)! E2 F2 |!>(! G2 (A^A)!>)! B2 c2 |!<(! B2 G2!<)! (^G4 | %35
w: Där- för må väl|flinkt jag _ söm- ma|på den rö-|
!>(! A2) B2 (c2!>)! A2) |!<(! E2!<)! E2 F2 ^G2 |!<(! A2!<)! c2!>(! e2!>)! !courtesy!^F2 | %38
w: * da skrud. _|Snart kan du om|bröl- lop dröm- ma,|
!<(! G2 B2 e2!<)! F2 |!>(! G8!>)! |] %40
w: snart kan du stå|brud.|
V:4
!<(! D2!<)! G,2 G,2 G,2 | G,2 G,2 G,2 G,2 |!<(! G,4!<)! E,4 | E,2 E,2 (C,2 B,,2) | %4
w: Kä- ra mo- der|säg, vi söm- mar|du den|rö- da skrud? _|
!<(! A,,2!<)! A,,2 B,,2 B,,2 | C,2 C,2 ^C,2 C,2 | D,2 D,2 D,2 D,2 | G,,8 | %8
w: Säg vem dröm- mer|bröl- lops- dröm- mar?|Säg, vem skall stå|brud?|
!mf! G,3 G,!<(! F,2 E,2!<)! | D4!>(! C4!>)! | F,3 F, B,2 A,2 |!>(! A,4 G,4!>)! | B,3 B, A,2 G,2 | %13
w: Vil- ken vill väl|bä- ra|ö- ver bru- na|loc- kar|re'n ba- rin- jans|
 F,4 E,4 |!<(! B,,2 E,2!<)!!>(! G,3 F,!>)! |!p! E,8 | z2!mp! E,2!<(! E,2!<)! E,2 | %17
w: hu- va|i sin ung- doms|vår?|Säg, vil- ken|
 z2 A,,2 A,,2 A,,2 | z2 D,2 E,2 F,2 | z2 G,2 G,2 G,2 | z2 E,2 ^D,2 E,2 | z2 A,,2 A,,2 C,2 | %22
w: som skru- den|med pär- lor|så loc- kar|att hon från|sin lju- va|
!<(! B,,2!<)! B,,2!>(! B,,3 B,,!>)! |!p!"^rit. molto"!>(! (C,4!>)!!pp! D,4) | %24
w: bar- na- fri- het|går? _|
!mf!"^a tempo" _E,4 D,4 | G,,2 D,2 G,2 =F,2 |!<(! E,3 _E, D,2!<)! (D,C,) |!<(! (B,,4!<)! E,4) | %28
w: Dot- ter,|kä- ra dot- ter,|vac- kert är ditt _|tal, _|
!mf!!<(! =F,3 F, E,2!<)! D,2 | C,2!>(! C,2 C,2 C,2!>)! |!p!"^rit. poco" ^C,3!>(! B, ^A,2 =A,2!>)! | %31
w: men det blin- da|ö- dets lot- ter|skän- kas u- tan|
!pp!"^rit."!>(! (^G,4 =G,4)!>)! |!p!"^a tempo"!<(! G,2 D,2!<)! D,2 D,2 |!>(! D,2 D,2!>)! D,2 D,2 | %34
w: val. _|Där- för må väl|flinkt jag söm- ma|
!<(! D,4!<)! D,4 |!>(! C,2 B,,2 (A,,2!>)! C,2) |!<(! E,2!<)! E,2 E,2 E,2 | %37
w: på den|rö- da skrud. _|Snart kan du om|
!<(! =F,2!<)! F,2!>(! C,2 ^C,2!>)! |!<(! D,2 D,2 D,2 D,2!<)! |!>(! [G,,D,]8!>)! |] %40
w: bröl- lop dröm- ma,|snart kan du stå|brud.|

